dist/img/icons/customers/paper-plane.svg

<svg width="36" height="36" viewBox="0 0 36 36" fill="none" xmlns="http://www.w3.org/2000/svg">
<g clip-path="url(#clip0)">
<path d="M13.1252 26.418V33.375C13.1252 33.861 13.4372 34.2914 13.8992 34.4444C14.0147 34.4819 14.1332 34.5 14.2502 34.5C14.6012 34.5 14.9402 34.335 15.1562 34.041L19.2257 28.503L13.1252 26.418Z" fill="#3E80FE"/>
<path d="M35.5273 0.208145C35.1823 -0.0363554 34.7293 -0.0693554 34.3543 0.127145L0.604262 17.7521C0.205262 17.9606 -0.0302385 18.3866 0.00276154 18.8351C0.0372615 19.2851 0.335762 19.6691 0.760262 19.8146L10.1428 23.0216L30.1243 5.93665L14.6623 24.5651L30.3868 29.9396C30.5038 29.9786 30.6268 29.9996 30.7498 29.9996C30.9538 29.9996 31.1563 29.9441 31.3348 29.8361C31.6198 29.6621 31.8133 29.3696 31.8628 29.0411L35.9878 1.29114C36.0493 0.871145 35.8723 0.454145 35.5273 0.208145Z" fill="#3E80FE"/>
</g>
<defs>
<clipPath id="clip0">
<rect width="36" height="36" fill="white"/>
</clipPath>
</defs>
</svg>

<svg width="36" height="36" fill="none" xmlns="http://www.w3.org/2000/svg"><g clip-path="url(#clip0)" fill="#3E80FE"><path d="M13.125 26.418v6.957A1.127 1.127 0 0014.25 34.5c.351 0 .69-.165.906-.459l4.07-5.538-6.1-2.085zM35.527.208a1.125 1.125 0 00-1.173-.08L.604 17.751a1.126 1.126 0 00.156 2.063l9.383 3.207L30.124 5.937 14.662 24.565l15.725 5.375a1.13 1.13 0 00.948-.104 1.13 1.13 0 00.528-.795l4.125-27.75a1.127 1.127 0 00-.46-1.083z"/></g><defs><clipPath id="clip0"><path fill="#fff" d="M0 0h36v36H0z"/></clipPath></defs></svg>
